dist/svg/laptop.svg

<!-- Generated by Trend Micro Style Portal -->
<svg version="1.1" xmlns="http://www.w3.org/2000/svg" width="16" height="16" viewBox="0 0 16 16">
  <title>laptop</title>
  <path fill="rgb(34,34,34)" d="M2 12h12c0.552 0 1-0.448 1-1v0-9c0-0.552-0.448-1-1-1v0h-12c-0.552 0-1 0.448-1 1v0 9c0 0.552 0.448 1 1 1v0zM3 3h10v7h-10zM16 13c0 1.105-0.895 2-2 2v0h-12c-1.105 0-2-0.895-2-2v0z"></path>
</svg>

<svg width="16" height="16" viewBox="0 0 16 16" fill="rgb(34, 34, 34)" xmlns="http://www.w3.org/2000/svg"><title>laptop</title><path d="M2 12H14C14.552 12 15 11.552 15 11V2C15 1.448 14.552 1 14 1H2C1.448 1 1 1.448 1 2V11C1 11.552 1.448 12 2 12ZM3 3H13V10H3V3ZM16 13C16 14.105 15.105 15 14 15H2C0.895 15 0 14.105 0 13H16Z" fill="rgb(34, 34, 34)" fill-opacity="1.00"/></svg>
